icons/stop.svg

<svg width="48" height="48" viewBox="0 0 48 48" fill="none" xmlns="http://www.w3.org/2000/svg">
<path fill-rule="evenodd" clip-rule="evenodd" d="M21 11V11.1707C20.6872 11.0602 20.3506 11 20 11C18.3431 11 17 12.3431 17 14V15.1707C16.6872 15.0602 16.3506 15 16 15C14.3431 15 13 16.3431 13 18V29.5252C13 35.3103 17.6897 40 23.4748 40C27.1123 40 30.4893 38.1129 32.3957 35.015L38.1312 25.6948C38.7819 24.6375 38.7156 23.2889 37.9644 22.3005C36.7747 20.7351 34.4273 20.7145 33.2103 22.2587L31 25.0631V14C31 12.3431 29.6569 11 28 11C27.6494 11 27.3128 11.0602 27 11.1707V11C27 9.34315 25.6569 8 24 8C22.3431 8 21 9.34315 21 11ZM25 11C25 10.4477 24.5523 10 24 10C23.4477 10 23 10.4477 23 11V23H21V14C21 13.4477 20.5523 13 20 13C19.4477 13 19 13.4477 19 14V25H17V18C17 17.4477 16.5523 17 16 17C15.4477 17 15 17.4477 15 18V29.5252C15 34.2057 18.7943 38 23.4748 38C26.4177 38 29.15 36.4732 30.6924 33.9668L36.4279 24.6466C36.6457 24.2928 36.6235 23.8415 36.3721 23.5107C35.9739 22.9868 35.1884 22.9799 34.7811 23.4967L32.5708 26.3011C31.396 27.7916 29 26.9609 29 25.0631V14C29 13.4477 28.5523 13 28 13C27.4477 13 27 13.4477 27 14V23H25V11Z" fill="black"/>
<path fill-rule="evenodd" clip-rule="evenodd" d="M24 4C35.0457 4 44 12.9543 44 24C44 35.0457 35.0457 44 24 44C12.9543 44 4 35.0457 4 24C4 12.9543 12.9543 4 24 4ZM42 24C42 14.0589 33.9411 6 24 6C14.0589 6 6 14.0589 6 24C6 33.9411 14.0589 42 24 42C33.9411 42 42 33.9411 42 24Z" fill="black"/>
</svg>

<svg
  xmlns="http://www.w3.org/2000/svg"
  width="24"
  height="24"
  viewBox="0 0 24 24"
  fill="none"
  stroke="currentColor"
  stroke-width="2"
  stroke-linecap="round"
  stroke-linejoin="round"
>
  <path
    fill-rule="evenodd"
    d="M21 11v.17A3 3 0 0 0 17 14v1.17A3 3 0 0 0 13 18v11.525C13 35.31 17.69 40 23.475 40c3.637 0 7.014-1.887 8.92-4.985l5.736-9.32a3.006 3.006 0 0 0-4.92-3.436L31 25.063V14a3 3 0 0 0-4-2.83V11a3 3 0 1 0-6 0m4 0a1 1 0 1 0-2 0v12h-2v-9a1 1 0 1 0-2 0v11h-2v-7a1 1 0 1 0-2 0v11.525a8.475 8.475 0 0 0 15.692 4.442l5.736-9.32a1.006 1.006 0 0 0-1.647-1.15l-2.21 2.804c-1.175 1.49-3.571.66-3.571-1.238V14a1 1 0 1 0-2 0v9h-2z"
    clip-rule="evenodd"
  />
  <path
    fill-rule="evenodd"
    d="M24 4c11.046 0 20 8.954 20 20s-8.954 20-20 20S4 35.046 4 24 12.954 4 24 4m18 20c0-9.941-8.059-18-18-18S6 14.059 6 24s8.059 18 18 18 18-8.059 18-18"
    clip-rule="evenodd"
  />
</svg>
